images/adver-icon-blue.svg

<svg xmlns="http://www.w3.org/2000/svg" width="315" height="322" fill="none" xmlns:v="https://vecta.io/nano"><ellipse opacity=".9" cx="157.5" cy="161" rx="157.5" ry="161" fill="url(#A)"/><path d="M192.373 92.395c-3.029 1.078-5.568 2.696-7.662 4.999-2.138 2.401-4.588 7.498-4.588 9.606v1.372h-3.563c-3.786 0-5.345.539-6.904 2.451-.847 1.029-.891 1.96-1.114 21.27l-.223 20.143-2.762.147-2.806.147v-14.36c0-12.89-.089-14.556-.846-16.32-3.475-8.381-14.299-5.636-14.299 3.626 0 1.471-.222 2.5-.534 2.647l-10.379 4.803-9.8 4.607-7.795.245c-7.394.245-7.929.294-10.334 1.617-3.653 1.961-6.771 5.881-7.929 9.998-1.113 4.019-1.113 6.077 0 10.096 1.47 5.195 5.746 9.704 10.602 11.125l1.87.539v7.058c0 7.743.268 9.017 2.361 11.419 2.673 3.039 7.083 3.235 9.978.441 2.45-2.352 2.806-3.823 2.806-11.321v-6.567l6.37 2.94 9.577 4.411 3.207 1.47v2.451c0 6.028 5.212 10.243 10.023 8.037 2.316-1.078 3.296-2.107 4.276-4.46.757-1.764.846-3.43.846-16.32v-14.36l2.806.148 2.762.147.223 20.142c.223 19.31.267 20.241 1.114 21.271 1.559 1.911 3.118 2.45 6.815 2.45h3.519l.311 2.009c1.07 7.401 8.018 13.968 15.413 14.556 13.14 1.029 22.183-14.016 16.303-27.102-6.103-13.527-23.208-13.919-30.067-.637-.758 1.421-1.47 3.529-1.649 4.656l-.267 2.107h-3.43c-2.093 0-3.652-.245-3.964-.588-.401-.441-.535-5.538-.535-19.849v-19.31l3.831.148 3.876.147.579 2.597c1.247 5.293 4.721 9.851 9.443 12.252 2.227 1.177 3.073 1.324 7.216 1.324 4.365 0 4.855-.098 7.35-1.569 3.296-1.862 6.592-5.636 8.151-9.36 1.025-2.402 1.203-3.431 1.203-7.45s-.178-5.048-1.203-7.449c-1.559-3.725-4.855-7.499-8.151-9.361-2.495-1.47-2.985-1.568-7.35-1.568-4.143 0-4.989.147-7.216 1.323-4.722 2.401-8.196 6.959-9.443 12.252l-.579 2.598-3.876.147-3.831.147v-19.31c0-14.311.134-19.408.535-19.849.312-.343 1.871-.588 3.964-.588h3.386l.267 1.813c.401 2.696 2.316 6.666 4.321 8.871 5.078 5.832 12.917 7.45 19.376 4.068 3.965-2.059 6.192-4.46 8.063-8.626 3.786-8.38 1.692-18.035-5.078-23.524-3.92-3.186-10.245-4.509-14.566-2.99zm10.245 4.95c2.272 1.225 5.123 4.362 6.236 6.861 1.292 2.99 1.47 8.822.312 11.714-1.158 2.793-3.118 5.685-3.92 5.685-.312 0-.802-.441-1.069-.98s-1.425-1.569-2.584-2.304c-1.692-1.078-2.628-1.372-4.766-1.372-3.029.049-4.677.833-6.859 3.283l-1.47 1.618-1.693-2.108c-2.316-2.842-3.296-6.175-3.029-10.341.356-5.342 2.806-9.409 7.171-11.811 2.539-1.421 3.074-1.519 6.326-1.372 2.361.098 4.187.49 5.345 1.127zm-44.989 24.995l1.113 1.176v30.925 30.925l-1.113 1.176c-1.827 2.059-4.677 1.52-5.925-1.078-.757-1.519-.757-60.527 0-62.046 1.248-2.597 4.098-3.137 5.925-1.078zm-10.023 32.101c0 16.908-.133 21.564-.534 21.564-.312 0-4.588-1.862-9.488-4.117l-8.909-4.116v-13.331-13.33l8.909-4.117c4.9-2.255 9.176-4.117 9.488-4.117.401 0 .534 4.656.534 21.564zm54.611-13.281c2.628 1.274 4.722 3.43 6.325 6.42 1.069 1.96 1.203 2.695 1.203 6.861s-.134 4.901-1.203 6.861c-.623 1.226-1.692 2.745-2.316 3.382l-1.114 1.176-1.247-1.617c-3.474-4.558-10.646-4.509-14.165.098l-1.158 1.519-1.158-1.176c-2.049-2.107-3.697-6.665-3.697-10.243 0-10.586 9.755-17.545 18.53-13.281zm-77.774 13.33v12.792l-5.879-.196c-6.726-.245-8.464-.834-11.225-3.725-.936-.98-2.094-2.696-2.539-3.774-1.114-2.597-1.114-7.645 0-10.292.98-2.45 4.276-5.832 6.325-6.518 2.583-.882 3.162-.98 8.33-1.029l4.988-.049v12.791zm0 23.917v7.351l-1.158.98c-1.648 1.422-3.786 1.324-5.122-.245-1.025-1.176-1.069-1.617-1.203-8.331l-.134-7.058h3.787 3.83v7.303zm78.22 6.812c2.939 1.666 4.498 3.382 5.924 6.567 2.45 5.391 1.693 11.714-1.96 16.468l-1.203 1.617-2.093-2.157c-3.92-4.018-8.731-4.116-12.74-.245-1.113 1.079-2.272 1.863-2.583 1.716-.802-.343-2.985-3.921-3.698-6.077-.89-2.745-.757-7.058.268-10.096 1.158-3.333 4.276-6.862 7.305-8.185 2.984-1.323 8.107-1.127 10.78.392zm-8.776-84.051c-2.717 2.009-3.43 5.538-1.737 8.576 1.915 3.431 6.058 3.823 8.775.834 1.247-1.373 1.47-1.961 1.47-4.068 0-5.146-4.722-8.136-8.508-5.342zm.001 43.814c-1.693 1.127-2.628 3.137-2.628 5.538 0 1.765.267 2.353 1.737 3.97 1.425 1.617 2.004 1.911 3.563 1.911 3.564 0 5.836-2.401 5.836-6.126 0-3.675-2.272-6.126-5.657-6.126-.936 0-2.228.392-2.851.833zm.624 43.521c-2.94 1.372-4.099 5.783-2.361 8.919 2.984 5.391 10.245 3.088 10.245-3.283 0-2.745-1.158-4.656-3.386-5.685-1.826-.834-2.672-.834-4.498.049z" fill="#f2f5fe"/><defs><linearGradient id="A" x1="157" y1="72" x2="81" y2="292" gradientUnits="userSpaceOnUse"><stop stop-color="#50c4e8"/><stop offset="1" stop-color="#50d3e8" stop-opacity="0"/></linearGradient></defs></svg>

<svg width="315" height="322" viewBox="0 0 315 322" fill="none" xmlns="http://www.w3.org/2000/svg">
<ellipse opacity="0.9" cx="157.5" cy="161" rx="157.5" ry="161" fill="url(#paint0_linear)"/>
<path d="M192.373 92.395C189.344 93.4733 186.805 95.0906 184.711 97.394C182.573 99.7955 180.123 104.892 180.123 107V108.372H176.56C172.774 108.372 171.215 108.911 169.656 110.823C168.809 111.852 168.765 112.783 168.542 132.093L168.319 152.236L165.557 152.383L162.751 152.53V138.17C162.751 125.28 162.662 123.614 161.905 121.85C158.43 113.469 147.606 116.214 147.606 125.476C147.606 126.947 147.384 127.976 147.072 128.123C146.76 128.27 142.083 130.426 136.693 132.926L126.893 137.533L119.098 137.778C111.704 138.023 111.169 138.072 108.764 139.395C105.111 141.356 101.993 145.276 100.835 149.393C99.7216 153.412 99.7216 155.47 100.835 159.489C102.305 164.684 106.581 169.193 111.437 170.614L113.307 171.153V178.211C113.307 185.954 113.575 187.228 115.668 189.63C118.341 192.669 122.751 192.865 125.646 190.071C128.096 187.719 128.452 186.248 128.452 178.75V172.183L134.822 175.123C138.297 176.74 142.617 178.701 144.399 179.534L147.606 181.004V183.455C147.606 189.483 152.818 193.698 157.629 191.492C159.945 190.414 160.925 189.385 161.905 187.032C162.662 185.268 162.751 183.602 162.751 170.712V156.352L165.557 156.5L168.319 156.647L168.542 176.789C168.765 196.099 168.809 197.03 169.656 198.06C171.215 199.971 172.774 200.51 176.471 200.51H179.99L180.301 202.519C181.371 209.92 188.319 216.487 195.714 217.075C208.854 218.104 217.897 203.059 212.017 189.973C205.914 176.446 188.809 176.054 181.95 189.336C181.192 190.757 180.48 192.865 180.301 193.992L180.034 196.099H176.604C174.511 196.099 172.952 195.854 172.64 195.511C172.239 195.07 172.105 189.973 172.105 175.662V156.352L175.936 156.5L179.812 156.647L180.391 159.244C181.638 164.537 185.112 169.095 189.834 171.496C192.061 172.673 192.907 172.82 197.05 172.82C201.415 172.82 201.905 172.722 204.4 171.251C207.696 169.389 210.992 165.615 212.551 161.891C213.576 159.489 213.754 158.46 213.754 154.441C213.754 150.422 213.576 149.393 212.551 146.992C210.992 143.267 207.696 139.493 204.4 137.631C201.905 136.161 201.415 136.063 197.05 136.063C192.907 136.063 192.061 136.21 189.834 137.386C185.112 139.787 181.638 144.345 180.391 149.638L179.812 152.236L175.936 152.383L172.105 152.53V133.22C172.105 118.909 172.239 113.812 172.64 113.371C172.952 113.028 174.511 112.783 176.604 112.783H179.99L180.257 114.596C180.658 117.292 182.573 121.262 184.578 123.467C189.656 129.299 197.495 130.917 203.954 127.535C207.919 125.476 210.146 123.075 212.017 118.909C215.803 110.529 213.709 100.874 206.939 95.3846C203.019 92.199 196.694 90.8757 192.373 92.395ZM202.618 97.345C204.89 98.5702 207.741 101.707 208.854 104.206C210.146 107.196 210.324 113.028 209.166 115.92C208.008 118.713 206.048 121.605 205.246 121.605C204.934 121.605 204.444 121.164 204.177 120.625C203.91 120.085 202.752 119.056 201.593 118.321C199.901 117.243 198.965 116.949 196.827 116.949C193.798 116.998 192.15 117.782 189.968 120.232L188.498 121.85L186.805 119.742C184.489 116.9 183.509 113.567 183.776 109.401C184.132 104.059 186.582 99.9915 190.947 97.59C193.486 96.1688 194.021 96.0708 197.273 96.2178C199.634 96.3158 201.46 96.7079 202.618 97.345ZM157.629 122.34L158.742 123.516V154.441V185.366L157.629 186.542C155.802 188.601 152.952 188.062 151.704 185.464C150.947 183.945 150.947 124.937 151.704 123.418C152.952 120.821 155.802 120.281 157.629 122.34ZM147.606 154.441C147.606 171.349 147.473 176.005 147.072 176.005C146.76 176.005 142.484 174.143 137.584 171.888L128.675 167.772V154.441V141.111L137.584 136.994C142.484 134.739 146.76 132.877 147.072 132.877C147.473 132.877 147.606 137.533 147.606 154.441ZM202.217 141.16C204.845 142.434 206.939 144.59 208.542 147.58C209.611 149.54 209.745 150.275 209.745 154.441C209.745 158.607 209.611 159.342 208.542 161.302C207.919 162.528 206.85 164.047 206.226 164.684L205.112 165.86L203.865 164.243C200.391 159.685 193.219 159.734 189.7 164.341L188.542 165.86L187.384 164.684C185.335 162.577 183.687 158.019 183.687 154.441C183.687 143.855 193.442 136.896 202.217 141.16ZM124.443 154.49V167.282L118.564 167.086C111.838 166.841 110.1 166.252 107.339 163.361C106.403 162.381 105.245 160.665 104.8 159.587C103.686 156.99 103.686 151.942 104.8 149.295C105.78 146.845 109.076 143.463 111.125 142.777C113.708 141.895 114.287 141.797 119.455 141.748L124.443 141.699V154.49ZM124.443 178.407V185.758L123.285 186.738C121.637 188.16 119.499 188.062 118.163 186.493C117.138 185.317 117.094 184.876 116.96 178.162L116.826 171.104H120.613H124.443V178.407ZM202.663 185.219C205.602 186.885 207.161 188.601 208.587 191.786C211.037 197.177 210.28 203.5 206.627 208.254L205.424 209.871L203.331 207.714C199.411 203.696 194.6 203.598 190.591 207.469C189.478 208.548 188.319 209.332 188.008 209.185C187.206 208.842 185.023 205.264 184.31 203.108C183.42 200.363 183.553 196.05 184.578 193.012C185.736 189.679 188.854 186.15 191.883 184.827C194.867 183.504 199.99 183.7 202.663 185.219Z" fill="#F2F5FE"/>
<path d="M193.887 101.168C191.17 103.177 190.457 106.706 192.15 109.744C194.065 113.175 198.208 113.567 200.925 110.578C202.172 109.205 202.395 108.617 202.395 106.51C202.395 101.364 197.673 98.3742 193.887 101.168Z" fill="#F2F5FE"/>
<path d="M193.888 144.982C192.195 146.109 191.26 148.119 191.26 150.52C191.26 152.285 191.527 152.873 192.997 154.49C194.422 156.107 195.001 156.401 196.56 156.401C200.124 156.401 202.396 154 202.396 150.275C202.396 146.6 200.124 144.149 196.739 144.149C195.803 144.149 194.511 144.541 193.888 144.982Z" fill="#F2F5FE"/>
<path d="M194.512 188.503C191.572 189.875 190.413 194.286 192.151 197.422C195.135 202.813 202.396 200.51 202.396 194.139C202.396 191.394 201.238 189.483 199.01 188.454C197.184 187.62 196.338 187.62 194.512 188.503Z" fill="#F2F5FE"/>
<defs>
<linearGradient id="paint0_linear" x1="157" y1="72" x2="81" y2="292" gradientUnits="userSpaceOnUse">
<stop stop-color="#50C4E8"/>
<stop offset="1" stop-color="#50D3E8" stop-opacity="0"/>
<stop offset="1" stop-color="#50D3E8" stop-opacity="0"/>
</linearGradient>
</defs>
</svg>
